!!!ONB: MCCC : IJB0068_05 : Extracted Monophonic Melody
!!!COM: Bach, Johann Sebastian
!!!OPR: Cello Suite No.6
!!!OMV: 5
!!!SCT: BWV 1012
!!!ODT: 1717///
**kern
*thru
*staff1
*IP1
*clefF4
*k[f#c#]
*D:
*M2/2
*>A
4f#
4f#
=1
4f#
8e
8d
8e
8f#
4g
=2
8d
8c#
8B
8A
4a
4a
=3
4a
8b
8a
8g
8f#
8e
8f#
=4
8g
8f#
8e
8d
4f#
4f#
=5
4f#
8e
8d
8e
8f#
4g
=6
8d
8c#
8B
8A
4d
4d
=7
4d
8c#
8d
8c#
8B
4e
=8
2c#
*>A
4f#
4f#
=1
4f#
8e
8d
8e
8f#
4g
=2
8d
8c#
8B
8A
4a
4a
=3
4a
8b
8a
8g
8f#
8e
8f#
=4
8g
8f#
8e
8d
4f#
4f#
=5
4f#
8e
8d
8e
8f#
4g
=6
8d
8c#
8B
8A
4d
4d
=7
4d
8c#
8d
8c#
8B
4e
=8
2c#
*>B
4a
4a
=9
4a
8b
8a
8g
8f#
4b
=10
8a
8g
8f#
8e
8A
8g
8f#
8e
=11
8G
8d#
8e
8g
8A
8f#
8B
8d#
=12
8E
8B
8e
8f#
4g
4g
=13
8C#
8E
8A
8B
8c#
8d
8e
8f#
=14
8g
8f#
8e
8d
8c#
8d
8e
8B
=15
8A#
8e
8B
8d
8E
8c#
8F#
8A#
=16
2B
4d
4d
=17
4d
8c#
8B
8c#
8d
4e
=18
8d
8c#
8B
8A
8B
8c#
8d
8c#
=19
8e
8d
8f#
8e
8g
8f#
4a
=20
2e
4f#
4f#
=21
4f#
8e
8d
8e
8f#
4g
=22
8d
8c#
8B
8A
4a
4a
=23
4a
8b
8a
8g
8f#
8e
8f#
=24
8g
8f#
8e
8d
4f#
4f#
=25
8f#
8a
8g
8f#
8e
8d
8c#
8B
=26
8c#
8b
8a
8g
8f#
8e
8d
8c#
=27
8B
8A
4a
4f#
8e
8d
=28
2d
*>B
4a
4a
=9
4a
8b
8a
8g
8f#
4b
=10
8a
8g
8f#
8e
8A
8g
8f#
8e
=11
8G
8d#
8e
8g
8A
8f#
8B
8d#
=12
8E
8B
8e
8f#
4g
4g
=13
8C#
8E
8A
8B
8c#
8d
8e
8f#
=14
8g
8f#
8e
8d
8c#
8d
8e
8B
=15
8A#
8e
8B
8d
8E
8c#
8F#
8A#
=16
2B
4d
4d
=17
4d
8c#
8B
8c#
8d
4e
=18
8d
8c#
8B
8A
8B
8c#
8d
8c#
=19
8e
8d
8f#
8e
8g
8f#
4a
=20
2e
4f#
4f#
=21
4f#
8e
8d
8e
8f#
4g
=22
8d
8c#
8B
8A
4a
4a
=23
4a
8b
8a
8g
8f#
8e
8f#
=24
8g
8f#
8e
8d
4f#
4f#
=25
8f#
8a
8g
8f#
8e
8d
8c#
8B
=26
8c#
8b
8a
8g
8f#
8e
8d
8c#
=27
8B
8A
4a
4f#
8e
8d
=28
2d
==
*-
